X: 27809
T: Morrison's Favourite
R: jig
M: 6/8
K: Dmajor
|:d|ABA DFD|A2B cBA|G3 ~G2F|GAG EFG|
[1ABA AFD|AGE cBA|GFG ~A2G|FDD D2:|
[2 A3 A3|AGE cBA|GFG ~A3|FDD D2||
e|:fdf ~g2d|cAG EFG|~f3 ged|eaa efg|
fdf ~g2d|cAG EFG|A3 ~B2G|FDD D2||

